%
(Header)
(Generated by gcodetools from Inkscape.)
(Using default header. To add your own header create file "header" in the output dir.)
M3
(Header end.)
G21 (All units in mm)

(Start cutting path id: path7128)
(Change tool to Cylindrical cutter)

G00 Z5.000000
G00 X-0.008819 Y27.213189

G01 Z-1.000000 F100.0(Penetrate)
G03 X-0.286268 Y27.206062 Z-1.000000 I-0.000000 J-5.404313 F400.000000
G02 X-0.564444 Y27.195550 Z-1.000000 I-0.525868 J10.229689
G01 X-0.211667 Y17.114925 Z-1.000000
G03 X-0.110643 Y17.119621 Z-1.000000 I-0.018103 J1.478315
G02 X-0.008819 Y17.123730 Z-1.000000 I0.101824 J-1.259583
G02 X0.106187 Y17.119723 Z-1.000000 I0.000000 J-1.652238
G03 X0.220486 Y17.114925 Z-1.000000 I0.143698 J2.059424
G01 X0.573264 Y27.195550 Z-1.000000
G02 X0.282224 Y27.206125 Z-1.000000 I0.287485 J11.921978
G03 X-0.008819 Y27.213189 Z-1.000000 I-0.291044 J-5.992381
G01 X-0.008819 Y27.213189 Z-1.000000
G00 Z5.000000

(End cutting path id: path7128)


(Start cutting path id: path7128)
(Change tool to Cylindrical cutter)

G00 Z5.000000
G00 X-0.008819 Y27.213189

G01 Z-2.000000 F100.0(Penetrate)
G03 X-0.286268 Y27.206062 Z-2.000000 I-0.000000 J-5.404313 F400.000000
G02 X-0.564444 Y27.195550 Z-2.000000 I-0.525868 J10.229689
G01 X-0.211667 Y17.114925 Z-2.000000
G03 X-0.110643 Y17.119621 Z-2.000000 I-0.018103 J1.478315
G02 X-0.008819 Y17.123730 Z-2.000000 I0.101824 J-1.259583
G02 X0.106187 Y17.119723 Z-2.000000 I0.000000 J-1.652238
G03 X0.220486 Y17.114925 Z-2.000000 I0.143698 J2.059424
G01 X0.573264 Y27.195550 Z-2.000000
G02 X0.282224 Y27.206125 Z-2.000000 I0.287485 J11.921978
G03 X-0.008819 Y27.213189 Z-2.000000 I-0.291044 J-5.992381
G01 X-0.008819 Y27.213189 Z-2.000000
G00 Z5.000000

(End cutting path id: path7128)


(Start cutting path id: path7128)
(Change tool to Cylindrical cutter)

G00 Z5.000000
G00 X-13.105694 Y23.800064

G01 Z-1.000000 F100.0(Penetrate)
G03 X-13.598838 Y23.522507 Z-1.000000 I13.664424 J-24.854891 F400.000000
G03 X-14.084653 Y23.235619 Z-1.000000 I13.026089 J-22.613105
G01 X-8.731250 Y14.671939 Z-1.000000
G02 X-8.551269 Y14.778777 Z-1.000000 I31.256240 J-52.449498
G02 X-8.369653 Y14.883605 Z-1.000000 I5.077468 J-8.587042
G01 X-13.105694 Y23.800064 Z-1.000000
G01 X-13.105694 Y23.800064 Z-1.000000
G00 Z5.000000

(End cutting path id: path7128)


(Start cutting path id: path7128)
(Change tool to Cylindrical cutter)

G00 Z5.000000
G00 X-13.105694 Y23.800064

G01 Z-2.000000 F100.0(Penetrate)
G03 X-13.598838 Y23.522507 Z-2.000000 I13.664424 J-24.854891 F400.000000
G03 X-14.084653 Y23.235619 Z-2.000000 I13.026089 J-22.613105
G01 X-8.731250 Y14.671939 Z-2.000000
G02 X-8.551269 Y14.778777 Z-2.000000 I31.256240 J-52.449498
G02 X-8.369653 Y14.883605 Z-2.000000 I5.077468 J-8.587042
G01 X-13.105694 Y23.800064 Z-2.000000
G01 X-13.105694 Y23.800064 Z-2.000000
G00 Z5.000000

(End cutting path id: path7128)


(Start cutting path id: path7128)
(Change tool to Cylindrical cutter)

G00 Z5.000000
G00 X13.105694 Y23.800064

G01 Z-1.000000 F100.0(Penetrate)
G01 X8.369653 Y14.865967 Z-1.000000 F400.000000
G03 X8.555656 Y14.761207 Z-1.000000 I318.228744 J564.804649
G02 X8.740069 Y14.654300 Z-1.000000 I-4.149306 J-7.370022
G01 X14.093472 Y23.226800 Z-1.000000
G03 X13.603184 Y23.518274 Z-1.000000 I-15.755187 J-25.943656
G03 X13.105694 Y23.800064 Z-1.000000 I-12.391934 J-21.297487
G01 X13.105694 Y23.800064 Z-1.000000
G00 Z5.000000

(End cutting path id: path7128)


(Start cutting path id: path7128)
(Change tool to Cylindrical cutter)

G00 Z5.000000
G00 X13.105694 Y23.800064

G01 Z-2.000000 F100.0(Penetrate)
G01 X8.369653 Y14.865967 Z-2.000000 F400.000000
G03 X8.555656 Y14.761207 Z-2.000000 I318.228744 J564.804649
G02 X8.740069 Y14.654300 Z-2.000000 I-4.149306 J-7.370022
G01 X14.093472 Y23.226800 Z-2.000000
G03 X13.603184 Y23.518274 Z-2.000000 I-15.755187 J-25.943656
G03 X13.105694 Y23.800064 Z-2.000000 I-12.391934 J-21.297487
G01 X13.105694 Y23.800064 Z-2.000000
G00 Z5.000000

(End cutting path id: path7128)


(Start cutting path id: path7128)
(Change tool to Cylindrical cutter)

G00 Z5.000000
G00 X-23.265694 Y14.063411

G01 Z-1.000000 F100.0(Penetrate)
G03 X-23.556899 Y13.577835 Z-1.000000 I56.844219 J-34.420170 F400.000000
G03 X-23.838958 Y13.084439 Z-1.000000 I14.701341 J-8.731606
G01 X-14.904861 Y8.339578 Z-1.000000
G03 X-14.800117 Y8.525558 Z-1.000000 I-1162.772001 J654.992950
G02 X-14.693194 Y8.709994 Z-1.000000 I7.406280 J-4.170419
G01 X-23.265694 Y14.063411 Z-1.000000
G01 X-23.265694 Y14.063411 Z-1.000000
G00 Z5.000000

(End cutting path id: path7128)


(Start cutting path id: path7128)
(Change tool to Cylindrical cutter)

G00 Z5.000000
G00 X-23.265694 Y14.063411

G01 Z-2.000000 F100.0(Penetrate)
G03 X-23.556899 Y13.577835 Z-2.000000 I56.844219 J-34.420170 F400.000000
G03 X-23.838958 Y13.084439 Z-2.000000 I14.701341 J-8.731606
G01 X-14.904861 Y8.339578 Z-2.000000
G03 X-14.800117 Y8.525558 Z-2.000000 I-1162.772001 J654.992950
G02 X-14.693194 Y8.709994 Z-2.000000 I7.406280 J-4.170419
G01 X-23.265694 Y14.063411 Z-2.000000
G01 X-23.265694 Y14.063411 Z-2.000000
G00 Z5.000000

(End cutting path id: path7128)


(Start cutting path id: path7128)
(Change tool to Cylindrical cutter)

G00 Z5.000000
G00 X23.274514 Y14.045631

G01 Z-1.000000 F100.0(Penetrate)
G01 X14.702014 Y8.683409 Z-1.000000 F400.000000
G02 X14.813303 Y8.494800 Z-1.000000 I-13.982300 J-8.377437
G02 X14.922500 Y8.304187 Z-1.000000 I-15.511865 J-9.012892
G01 X23.847778 Y13.049161 Z-1.000000
G03 X23.566280 Y13.550711 Z-1.000000 I-33.226326 J-18.318681
G03 X23.274514 Y14.045744 Z-1.000000 I-18.402618 J-10.512773
G01 X23.274514 Y14.045631 Z-1.000000
G00 Z5.000000

(End cutting path id: path7128)


(Start cutting path id: path7128)
(Change tool to Cylindrical cutter)

G00 Z5.000000
G00 X23.274514 Y14.045631

G01 Z-2.000000 F100.0(Penetrate)
G01 X14.702014 Y8.683409 Z-2.000000 F400.000000
G02 X14.813303 Y8.494800 Z-2.000000 I-13.982300 J-8.377437
G02 X14.922500 Y8.304187 Z-2.000000 I-15.511865 J-9.012892
G01 X23.847778 Y13.049161 Z-2.000000
G03 X23.566280 Y13.550711 Z-2.000000 I-33.226326 J-18.318681
G03 X23.274514 Y14.045744 Z-2.000000 I-18.402618 J-10.512773
G01 X23.274514 Y14.045631 Z-2.000000
G00 Z5.000000

(End cutting path id: path7128)


(Start cutting path id: path7128)
(Change tool to Cylindrical cutter)

G00 Z5.000000
G00 X-27.234444 Y0.552022

G01 Z-1.000000 F100.0(Penetrate)
G02 X-27.245029 Y0.256754 Z-1.000000 I-12.436761 J0.298020 F400.000000
G03 X-27.252083 Y-0.038894 Z-1.000000 I6.192235 J-0.295648
G03 X-27.244435 Y-0.309047 Z-1.000000 I4.775291 J0.000000
G02 X-27.234444 Y-0.576866 Z-1.000000 I-6.927046 J-0.392512
G01 X-17.162639 Y-0.215283 Z-1.000000
G03 X-17.167328 Y-0.127476 Z-1.000000 I-1.104075 J-0.014934
G02 X-17.171458 Y-0.038894 Z-1.000000 I0.947869 J0.088581
G02 X-17.167628 Y0.085451 Z-1.000000 I2.020168 J-0.000000
G03 X-17.162639 Y0.208050 Z-1.000000 I-2.927220 J0.180519
G01 X-27.234444 Y0.552022 Z-1.000000
G01 X-27.234444 Y0.552022 Z-1.000000
G00 Z5.000000

(End cutting path id: path7128)


(Start cutting path id: path7128)
(Change tool to Cylindrical cutter)

G00 Z5.000000
G00 X-27.234444 Y0.552022

G01 Z-2.000000 F100.0(Penetrate)
G02 X-27.245029 Y0.256754 Z-2.000000 I-12.436761 J0.298020 F400.000000
G03 X-27.252083 Y-0.038894 Z-2.000000 I6.192235 J-0.295648
G03 X-27.244435 Y-0.309047 Z-2.000000 I4.775291 J0.000000
G02 X-27.234444 Y-0.576866 Z-2.000000 I-6.927046 J-0.392512
G01 X-17.162639 Y-0.215283 Z-2.000000
G03 X-17.167328 Y-0.127476 Z-2.000000 I-1.104075 J-0.014934
G02 X-17.171458 Y-0.038894 Z-2.000000 I0.947869 J0.088581
G02 X-17.167628 Y0.085451 Z-2.000000 I2.020168 J-0.000000
G03 X-17.162639 Y0.208050 Z-2.000000 I-2.927220 J0.180519
G01 X-27.234444 Y0.552022 Z-2.000000
G01 X-27.234444 Y0.552022 Z-2.000000
G00 Z5.000000

(End cutting path id: path7128)


(Start cutting path id: path7128)
(Change tool to Cylindrical cutter)

G00 Z5.000000
G00 X27.225625 Y0.499078

G01 Z-1.000000 F100.0(Penetrate)
G01 X17.145000 Y0.146300 Z-1.000000 F400.000000
G03 X17.149631 Y0.053723 Z-1.000000 I1.147299 J0.010986
G02 X17.153819 Y-0.038894 Z-1.000000 I-1.021891 J-0.092617
G02 X17.149856 Y-0.162657 Z-1.000000 I-1.934073 J-0.000000
G03 X17.145000 Y-0.285839 Z-1.000000 I2.497045 J-0.160115
G01 X27.216805 Y-0.638617 Z-1.000000
G02 X27.232388 Y-0.337097 Z-1.000000 I7.093311 J-0.215424
G03 X27.243264 Y-0.038894 Z-1.000000 I-4.082828 J0.298202
G03 X27.236105 Y0.229496 Z-1.000000 I-5.034684 J0.000000
G02 X27.225625 Y0.499078 Z-1.000000 I9.304334 J0.496704
G01 X27.225625 Y0.499078 Z-1.000000
G00 Z5.000000

(End cutting path id: path7128)


(Start cutting path id: path7128)
(Change tool to Cylindrical cutter)

G00 Z5.000000
G00 X27.225625 Y0.499078

G01 Z-2.000000 F100.0(Penetrate)
G01 X17.145000 Y0.146300 Z-2.000000 F400.000000
G03 X17.149631 Y0.053723 Z-2.000000 I1.147299 J0.010986
G02 X17.153819 Y-0.038894 Z-2.000000 I-1.021891 J-0.092617
G02 X17.149856 Y-0.162657 Z-2.000000 I-1.934073 J-0.000000
G03 X17.145000 Y-0.285839 Z-2.000000 I2.497045 J-0.160115
G01 X27.216805 Y-0.638617 Z-2.000000
G02 X27.232388 Y-0.337097 Z-2.000000 I7.093311 J-0.215424
G03 X27.243264 Y-0.038894 Z-2.000000 I-4.082828 J0.298202
G03 X27.236105 Y0.229496 Z-2.000000 I-5.034684 J0.000000
G02 X27.225625 Y0.499078 Z-2.000000 I9.304334 J0.496704
G01 X27.225625 Y0.499078 Z-2.000000
G00 Z5.000000

(End cutting path id: path7128)


(Start cutting path id: path7128)
(Change tool to Cylindrical cutter)

G00 Z5.000000
G00 X-14.940139 Y-8.364450

G01 Z-1.000000 F100.0(Penetrate)
G01 X-23.865417 Y-13.109311 Z-1.000000 F400.000000
G03 X-23.588159 Y-13.606522 Z-1.000000 I44.190801 J24.315997
G03 X-23.300972 Y-14.097089 Z-1.000000 I16.166523 J9.134842
G01 X-14.728472 Y-8.734867 Z-1.000000
G02 X-14.835499 Y-8.550250 Z-1.000000 I20.362033 J11.927685
G02 X-14.940139 Y-8.364450 Z-1.000000 I11.640349 J6.678050
G01 X-14.940139 Y-8.364450 Z-1.000000
G00 Z5.000000

(End cutting path id: path7128)


(Start cutting path id: path7128)
(Change tool to Cylindrical cutter)

G00 Z5.000000
G00 X-14.940139 Y-8.364450

G01 Z-2.000000 F100.0(Penetrate)
G01 X-23.865417 Y-13.109311 Z-2.000000 F400.000000
G03 X-23.588159 Y-13.606522 Z-2.000000 I44.190801 J24.315997
G03 X-23.300972 Y-14.097089 Z-2.000000 I16.166523 J9.134842
G01 X-14.728472 Y-8.734867 Z-2.000000
G02 X-14.835499 Y-8.550250 Z-2.000000 I20.362033 J11.927685
G02 X-14.940139 Y-8.364450 Z-2.000000 I11.640349 J6.678050
G01 X-14.940139 Y-8.364450 Z-2.000000
G00 Z5.000000

(End cutting path id: path7128)


(Start cutting path id: path7128)
(Change tool to Cylindrical cutter)

G00 Z5.000000
G00 X14.887222 Y-8.443811

G01 Z-1.000000 F100.0(Penetrate)
G02 X14.777971 Y-8.630016 Z-1.000000 I-7.966436 J4.548954 F400.000000
G02 X14.666736 Y-8.814256 Z-1.000000 I-114.521994 J69.017062
G01 X23.239236 Y-14.167644 Z-1.000000
G03 X23.526260 Y-13.677347 Z-1.000000 I-13.860868 J8.443410
G03 X23.803680 Y-13.179867 Z-1.000000 I-72.640607 J40.834275
G01 X14.887222 Y-8.443811 Z-1.000000
G01 X14.887222 Y-8.443811 Z-1.000000
G00 Z5.000000

(End cutting path id: path7128)


(Start cutting path id: path7128)
(Change tool to Cylindrical cutter)

G00 Z5.000000
G00 X14.887222 Y-8.443811

G01 Z-2.000000 F100.0(Penetrate)
G02 X14.777971 Y-8.630016 Z-2.000000 I-7.966436 J4.548954 F400.000000
G02 X14.666736 Y-8.814256 Z-2.000000 I-114.521994 J69.017062
G01 X23.239236 Y-14.167644 Z-2.000000
G03 X23.526260 Y-13.677347 Z-2.000000 I-13.860868 J8.443410
G03 X23.803680 Y-13.179867 Z-2.000000 I-72.640607 J40.834275
G01 X14.887222 Y-8.443811 Z-2.000000
G01 X14.887222 Y-8.443811 Z-2.000000
G00 Z5.000000

(End cutting path id: path7128)


(Start cutting path id: path7128)
(Change tool to Cylindrical cutter)

G00 Z5.000000
G00 X-8.784167 Y-14.714450

G01 Z-1.000000 F100.0(Penetrate)
G01 X-14.137569 Y-23.278145 Z-1.000000 F400.000000
G03 X-13.651765 Y-23.565023 Z-1.000000 I11.031842 J18.126730
G03 X-13.158611 Y-23.842589 Z-1.000000 I18.799243 J32.823881
G01 X-8.413750 Y-14.926117 Z-1.000000
G03 X-8.599751 Y-14.821359 Z-1.000000 I-26.172782 J-46.253151
G02 X-8.784167 Y-14.714450 Z-1.000000 I3.606547 J6.433732
G01 X-8.784167 Y-14.714450 Z-1.000000
G00 Z5.000000

(End cutting path id: path7128)


(Start cutting path id: path7128)
(Change tool to Cylindrical cutter)

G00 Z5.000000
G00 X-8.784167 Y-14.714450

G01 Z-2.000000 F100.0(Penetrate)
G01 X-14.137569 Y-23.278145 Z-2.000000 F400.000000
G03 X-13.651765 Y-23.565023 Z-2.000000 I11.031842 J18.126730
G03 X-13.158611 Y-23.842589 Z-2.000000 I18.799243 J32.823881
G01 X-8.413750 Y-14.926117 Z-2.000000
G03 X-8.599751 Y-14.821359 Z-2.000000 I-26.172782 J-46.253151
G02 X-8.784167 Y-14.714450 Z-2.000000 I3.606547 J6.433732
G01 X-8.784167 Y-14.714450 Z-2.000000
G00 Z5.000000

(End cutting path id: path7128)


(Start cutting path id: path7128)
(Change tool to Cylindrical cutter)

G00 Z5.000000
G00 X8.678333 Y-14.767367

G01 Z-1.000000 F100.0(Penetrate)
G02 X8.498397 Y-14.874183 Z-1.000000 I-107.376615 J180.674342 F400.000000
G02 X8.316736 Y-14.979033 Z-1.000000 I-4.547172 J7.668549
G01 X13.052778 Y-23.904311 Z-1.000000
G03 X13.550947 Y-23.626502 Z-1.000000 I-13.396648 J24.608501
G03 X14.040556 Y-23.339867 Z-1.000000 I-13.076639 J22.898011
G01 X8.678333 Y-14.767367 Z-1.000000
G01 X8.678333 Y-14.767367 Z-1.000000
G00 Z5.000000

(End cutting path id: path7128)


(Start cutting path id: path7128)
(Change tool to Cylindrical cutter)

G00 Z5.000000
G00 X8.678333 Y-14.767367

G01 Z-2.000000 F100.0(Penetrate)
G02 X8.498397 Y-14.874183 Z-2.000000 I-107.376615 J180.674342 F400.000000
G02 X8.316736 Y-14.979033 Z-2.000000 I-4.547172 J7.668549
G01 X13.052778 Y-23.904311 Z-2.000000
G03 X13.550947 Y-23.626502 Z-2.000000 I-13.396648 J24.608501
G03 X14.040556 Y-23.339867 Z-2.000000 I-13.076639 J22.898011
G01 X8.678333 Y-14.767367 Z-2.000000
G01 X8.678333 Y-14.767367 Z-2.000000
G00 Z5.000000

(End cutting path id: path7128)


(Start cutting path id: path7128)
(Change tool to Cylindrical cutter)

G00 Z5.000000
G00 X-0.273403 Y-17.192700

G01 Z-1.000000 F100.0(Penetrate)
G01 X-0.626181 Y-27.264533 Z-1.000000 F400.000000
G02 X-0.318140 Y-27.275061 Z-1.000000 I-0.328932 J-14.136766
G03 X-0.008819 Y-27.282031 Z-1.000000 I0.309321 J6.859851
G03 X0.252242 Y-27.274415 Z-1.000000 I-0.000000 J4.478177
G02 X0.511528 Y-27.264533 Z-1.000000 I0.373774 J-6.400711
G01 X0.158750 Y-17.192700 Z-1.000000
G03 X0.075354 Y-17.197054 Z-1.000000 I0.000000 J-0.800830
G02 X-0.008819 Y-17.201449 Z-1.000000 I-0.084173 J0.803898
G02 X-0.141966 Y-17.197667 Z-1.000000 I0.000000 J2.345638
G03 X-0.273403 Y-17.192700 Z-1.000000 I-0.196256 J-3.451872
G01 X-0.273403 Y-17.192700 Z-1.000000
G00 Z5.000000

(End cutting path id: path7128)


(Start cutting path id: path7128)
(Change tool to Cylindrical cutter)

G00 Z5.000000
G00 X-0.273403 Y-17.192700

G01 Z-2.000000 F100.0(Penetrate)
G01 X-0.626181 Y-27.264533 Z-2.000000 F400.000000
G02 X-0.318140 Y-27.275061 Z-2.000000 I-0.328932 J-14.136766
G03 X-0.008819 Y-27.282031 Z-2.000000 I0.309321 J6.859851
G03 X0.252242 Y-27.274415 Z-2.000000 I-0.000000 J4.478177
G02 X0.511528 Y-27.264533 Z-2.000000 I0.373774 J-6.400711
G01 X0.158750 Y-17.192700 Z-2.000000
G03 X0.075354 Y-17.197054 Z-2.000000 I0.000000 J-0.800830
G02 X-0.008819 Y-17.201449 Z-2.000000 I-0.084173 J0.803898
G02 X-0.141966 Y-17.197667 Z-2.000000 I0.000000 J2.345638
G03 X-0.273403 Y-17.192700 Z-2.000000 I-0.196256 J-3.451872
G01 X-0.273403 Y-17.192700 Z-2.000000
G00 Z5.000000

(End cutting path id: path7128)


(Footer)
M5
G00 X0.0000 Y0.0000
M2
(Using default footer. To add your own footer create file "footer" in the output dir.)
(end)
%