%
(Header)
(Generated by gcodetools from Inkscape.)
(Using default header. To add your own header create file "header" in the output dir.)
M3
(Header end.)
G21 (All units in mm)

(Start cutting path id: path4814)
(Change tool to Cylindrical cutter)


(Start cutting path id: path4804)
(Change tool to Cylindrical cutter)

G00 Z5.000000
G00 X9.773230 Y-0.037145

G01 Z-3.500000 F100.0(Penetrate)
G02 X8.464039 Y-4.926463 Z-3.000000 I-9.776937 J-0.002010 F200.000000
G02 X4.885342 Y-8.505896 Z-3.000000 I-8.467746 J4.887308
G02 X-0.003706 Y-9.816092 Z-3.000000 I-4.889049 J8.466741
G02 X-4.892755 Y-8.505896 Z-3.000000 I-0.000000 J9.776937
G02 X-8.471452 Y-4.926463 Z-3.000000 I4.889049 J8.466741
G02 X-9.780643 Y-0.037145 Z-3.000000 I8.467746 J4.887308
G02 X-8.471452 Y4.852173 Z-3.000000 I9.776937 J0.002010
G02 X-4.892755 Y8.431606 Z-3.000000 I8.467746 J-4.887308
G02 X-0.003706 Y9.741802 Z-3.000000 I4.889049 J-8.466741
G02 X4.885342 Y8.431606 Z-3.000000 I0.000000 J-9.776937
G02 X8.464039 Y4.852173 Z-3.000000 I-4.889049 J-8.466741
G02 X9.773230 Y-0.037145 Z-3.000000 I-8.467746 J-4.887308
G01 X9.773230 Y-0.037145 Z-3.000000
G00 Z5.000000

(End cutting path id: path4804)


(Start cutting path id: path4800)
(Change tool to Cylindrical cutter)

G00 Z5.000000
G00 X11.768524 Y-0.037147

G01 Z-3.500000 F100.0(Penetrate)
G02 X10.192151 Y-5.924285 Z-3.000000 I-11.772230 J-0.002420 F200.000000
G02 X5.883107 Y-10.234214 Z-3.000000 I-10.195857 J5.884718
G02 X-0.003707 Y-11.811797 Z-3.000000 I-5.886814 J10.194647
G02 X-5.890520 Y-10.234214 Z-3.000000 I-0.000000 J11.772230
G02 X-10.199564 Y-5.924285 Z-3.000000 I5.886814 J10.194647
G02 X-11.775937 Y-0.037147 Z-3.000000 I10.195857 J5.884718
G02 X-10.199564 Y5.849992 Z-3.000000 I11.772230 J0.002420
G02 X-5.890520 Y10.159921 Z-3.000000 I10.195857 J-5.884718
G02 X-0.003707 Y11.737504 Z-3.000000 I5.886814 J-10.194647
G02 X5.883107 Y10.159921 Z-3.000000 I-0.000000 J-11.772230
G02 X10.192151 Y5.849992 Z-3.000000 I-5.886814 J-10.194647
G02 X11.768524 Y-0.037147 Z-3.000000 I-10.195857 J-5.884718
G01 X11.768524 Y-0.037147 Z-3.000000
G00 Z5.000000

(End cutting path id: path4800)


(Start cutting path id: path4794)
(Change tool to Cylindrical cutter)

G00 Z5.000000
G00 X13.763816 Y-0.037148

G01 Z-3.500000 F100.0(Penetrate)
G02 X11.920262 Y-6.922106 Z-3.000000 I-13.767523 J-0.002830 F200.000000
G02 X6.880872 Y-11.962532 Z-3.000000 I-11.923969 J6.882128
G02 X-0.003707 Y-13.807502 Z-3.000000 I-6.884579 J11.922553
G02 X-6.888286 Y-11.962532 Z-3.000000 I-0.000000 J13.767524
G02 X-11.927676 Y-6.922106 Z-3.000000 I6.884579 J11.922553
G02 X-13.771230 Y-0.037148 Z-3.000000 I11.923969 J6.882128
G02 X-11.927676 Y6.847810 Z-3.000000 I13.767523 J0.002830
G02 X-6.888286 Y11.888236 Z-3.000000 I11.923969 J-6.882128
G02 X-0.003707 Y13.733206 Z-3.000000 I6.884579 J-11.922553
G02 X6.880872 Y11.888236 Z-3.000000 I0.000000 J-13.767524
G02 X11.920262 Y6.847810 Z-3.000000 I-6.884579 J-11.922553
G02 X13.763816 Y-0.037148 Z-3.000000 I-11.923969 J-6.882128
G01 X13.763816 Y-0.037148 Z-3.000000
G00 Z5.000000

(End cutting path id: path4794)


(Start cutting path id: path4790)
(Change tool to Cylindrical cutter)

G00 Z5.000000
G00 X15.759112 Y-0.037150

G01 Z-3.500000 F100.0(Penetrate)
G02 X13.648376 Y-7.919928 Z-3.000000 I-15.762817 J-0.003241 F200.000000
G02 X7.878640 Y-13.690850 Z-3.000000 I-13.652080 J7.879537
G02 X-0.003704 Y-15.803207 Z-3.000000 I-7.882344 J13.650460
G02 X-7.886048 Y-13.690850 Z-3.000000 I-0.000000 J15.762817
G02 X-13.655785 Y-7.919928 Z-3.000000 I7.882344 J13.650460
G02 X-15.766521 Y-0.037150 Z-3.000000 I13.652080 J7.879537
G02 X-13.655785 Y7.845629 Z-3.000000 I15.762817 J0.003241
G02 X-7.886048 Y13.616551 Z-3.000000 I13.652080 J-7.879537
G02 X-0.003704 Y15.728908 Z-3.000000 I7.882344 J-13.650460
G02 X7.878640 Y13.616551 Z-3.000000 I-0.000000 J-15.762817
G02 X13.648376 Y7.845629 Z-3.000000 I-7.882344 J-13.650460
G02 X15.759112 Y-0.037150 Z-3.000000 I-13.652080 J-7.879537
G01 X15.759112 Y-0.037150 Z-3.000000
G00 Z5.000000

(End cutting path id: path4790)


(Footer)
M5
G00 X0.0000 Y0.0000
M2
(Using default footer. To add your own footer create file "footer" in the output dir.)
(end)
%