%
(Header)
(Generated by gcodetools from Inkscape.)
(Using default header. To add your own header create file "header" in the output dir.)
M3
(Header end.)
G21 (All units in mm)

(Start cutting path id: path11317)
(Change tool to Cylindrical cutter)

G00 Z5.000000
G00 X-3.007431 Y28.619097

G01 Z-4.000000 F100.0(Penetrate)
G03 X-13.273122 Y25.532801 Z-4.000000 I2.958240 J-28.455857 F100.000000
G03 X-21.341551 Y19.306185 Z-4.000000 I13.395449 J-25.698611
G03 X-26.738487 Y10.688252 Z-4.000000 I21.351814 J-19.370331
G03 X-28.813125 Y-0.035278 Z-4.000000 I26.676935 J-10.723530
G03 X-26.738523 Y-10.758650 Z-4.000000 I28.751223 J-0.000000
G03 X-21.341769 Y-19.376217 Z-4.000000 I26.746952 J10.751644
G03 X-13.273543 Y-25.602673 Z-4.000000 I21.464193 J19.472628
G03 X-3.007431 Y-28.689639 Z-4.000000 I13.227668 J25.376218
G00 Z5.000000

(End cutting path id: path11317)


(Start cutting path id: path11317)
(Change tool to Cylindrical cutter)

G00 Z5.000000
G00 X-3.007431 Y28.619097

G01 Z-8.000000 F100.0(Penetrate)
G03 X-13.273122 Y25.532801 Z-8.000000 I2.958240 J-28.455857 F100.000000
G03 X-21.341551 Y19.306185 Z-8.000000 I13.395449 J-25.698611
G03 X-26.738487 Y10.688252 Z-8.000000 I21.351814 J-19.370331
G03 X-28.813125 Y-0.035278 Z-8.000000 I26.676935 J-10.723530
G03 X-26.738523 Y-10.758650 Z-8.000000 I28.751223 J-0.000000
G03 X-21.341769 Y-19.376217 Z-8.000000 I26.746952 J10.751644
G03 X-13.273543 Y-25.602673 Z-8.000000 I21.464193 J19.472628
G03 X-3.007431 Y-28.689639 Z-8.000000 I13.227668 J25.376218
G00 Z5.000000

(End cutting path id: path11317)


(Start cutting path id: path11317)
(Change tool to Cylindrical cutter)

G00 Z5.000000
G00 X2.998611 Y-28.689639

G01 Z-4.000000 F100.0(Penetrate)
G03 X13.264723 Y-25.602673 Z-4.000000 I-2.961556 J28.463183 F100.000000
G03 X21.332950 Y-19.376217 Z-4.000000 I-13.395966 J25.699083
G03 X26.729703 Y-10.758650 Z-4.000000 I-21.350199 J19.369211
G03 X28.804305 Y-0.035278 Z-4.000000 I-26.676621 J10.723372
G03 X26.729668 Y10.688252 Z-4.000000 I-28.751573 J-0.000000
G03 X21.332732 Y19.306185 Z-4.000000 I-26.748750 J-10.752397
G03 X13.264302 Y25.532801 Z-4.000000 I-21.463879 J-19.471995
G03 X2.998611 Y28.619097 Z-4.000000 I-13.223931 J-25.369561
G00 Z5.000000

(End cutting path id: path11317)


(Start cutting path id: path11317)
(Change tool to Cylindrical cutter)

G00 Z5.000000
G00 X2.998611 Y-28.689639

G01 Z-8.000000 F100.0(Penetrate)
G03 X13.264723 Y-25.602673 Z-8.000000 I-2.961556 J28.463183 F100.000000
G03 X21.332950 Y-19.376217 Z-8.000000 I-13.395966 J25.699083
G03 X26.729703 Y-10.758650 Z-8.000000 I-21.350199 J19.369211
G03 X28.804305 Y-0.035278 Z-8.000000 I-26.676621 J10.723372
G03 X26.729668 Y10.688252 Z-8.000000 I-28.751573 J-0.000000
G03 X21.332732 Y19.306185 Z-8.000000 I-26.748750 J-10.752397
G03 X13.264302 Y25.532801 Z-8.000000 I-21.463879 J-19.471995
G03 X2.998611 Y28.619097 Z-8.000000 I-13.223931 J-25.369561
G00 Z5.000000

(End cutting path id: path11317)


(Footer)
M5
G00 X0.0000 Y0.0000
M2
(Using default footer. To add your own footer create file "footer" in the output dir.)
(end)
%