%
(Header)
(Generated by gcodetools from Inkscape.)
(Using default header. To add your own header create file "header" in the output dir.)
M3
(Header end.)
G21 (All units in mm)

(Start cutting path id: path20419)
(Change tool to Cylindrical cutter)

G00 Z5.000000
G00 X4.357538 Y28.436423

G01 Z-4.000000 F100.0(Penetrate)
G03 X2.217777 Y28.683925 Z-4.000000 I-4.492567 J-29.466815 F100.000000
G03 X0.000733 Y28.771562 Z-4.000000 I-2.217044 J-27.999741
G03 X-2.220778 Y28.684096 Z-4.000000 I-0.000000 J-28.255171
G03 X-4.364892 Y28.436423 Z-4.000000 I2.338040 J-29.645243
G00 Z5.000000

(End cutting path id: path20419)


(Start cutting path id: path20419)
(Change tool to Cylindrical cutter)

G00 Z5.000000
G00 X4.357538 Y28.436423

G01 Z-8.000000 F100.0(Penetrate)
G03 X2.217777 Y28.683925 Z-8.000000 I-4.492567 J-29.466815 F100.000000
G03 X0.000733 Y28.771562 Z-8.000000 I-2.217044 J-27.999741
G03 X-2.220778 Y28.684096 Z-8.000000 I-0.000000 J-28.255171
G03 X-4.364892 Y28.436423 Z-8.000000 I2.338040 J-29.645243
G00 Z5.000000

(End cutting path id: path20419)


(Footer)
M5
G00 X0.0000 Y0.0000
M2
(Using default footer. To add your own footer create file "footer" in the output dir.)
(end)
%