%
(Header)
(Generated by gcodetools from Inkscape.)
(Using default header. To add your own header create file "header" in the output dir.)
M3
(Header end.)
G21 (All units in mm)

(Start cutting path id: path11317-7)
(Change tool to Cylindrical cutter)

G00 Z5.000000
G00 X-4.364892 Y-28.519543

G01 Z-4.000000 F100.0(Penetrate)
G03 X-2.220777 Y-28.762866 Z-4.000000 I4.246937 J27.854828 F100.000000
G03 X0.000733 Y-28.845877 Z-4.000000 I2.221509 J29.684069
G03 X2.217775 Y-28.762700 Z-4.000000 I-0.000000 J29.588702
G03 X4.357538 Y-28.519543 Z-4.000000 I-2.115188 J28.149990
G00 Z5.000000

(End cutting path id: path11317-7)


(Start cutting path id: path11317-7)
(Change tool to Cylindrical cutter)

G00 Z5.000000
G00 X-4.364892 Y-28.519543

G01 Z-8.000000 F100.0(Penetrate)
G03 X-2.220777 Y-28.762866 Z-8.000000 I4.246937 J27.854828 F100.000000
G03 X0.000733 Y-28.845877 Z-8.000000 I2.221509 J29.684069
G03 X2.217775 Y-28.762700 Z-8.000000 I-0.000000 J29.588702
G03 X4.357538 Y-28.519543 Z-8.000000 I-2.115188 J28.149990
G00 Z5.000000

(End cutting path id: path11317-7)


(Footer)
M5
G00 X0.0000 Y0.0000
M2
(Using default footer. To add your own footer create file "footer" in the output dir.)
(end)
%