%
(Header)
(Generated by gcodetools from Inkscape.)
(Using default header. To add your own header create file "header" in the output dir.)
M3 (spindle clockwise)
(Header end.)
G21 (All units in mm)

G00 Z5.000000 (rapid motion)
G00 X0.0 Y0.0
G01 Z-8.000000 F100.0(Penetrate)

G00 Z5.000000
G00 X12.0 Y0.0
G01 Z-8.000000 F100.0(Penetrate)

G00 Z5.000000
G00 X-12.0 Y0.0
G01 Z-8.000000 F100.0(Penetrate)

G00 Z5.000000


(Footer)
M5 (stop spindle)
G00 X0.0000 Y0.0000
M2 (end program)
(Using default footer. To add your own footer create file "footer" in the output dir.)
(end)
%