%
(Header)
(Generated by gcodetools from Inkscape.)
(Using default header. To add your own header create file "header" in the output dir.)
M3
(Header end.)
G21 (All units in mm)

(Start cutting path id: path22469)
(Change tool to Cylindrical cutter)

G00 Z5.000000
G00 X-6.548844 Y-21.935275

G01 Z-4.000000 F100.0(Penetrate)
G03 X-3.395853 Y-22.636197 Z-4.000000 I6.462067 J21.626523 F100.000000
G03 X-0.009162 Y-22.885799 Z-4.000000 I3.386691 J22.851133
G03 X3.382239 Y-22.632126 Z-4.000000 I-0.000000 J22.796967
G03 X6.540024 Y-21.925792 Z-4.000000 I-3.405374 J22.636173
G00 Z5.000000

(End cutting path id: path22469)


(Start cutting path id: path22469)
(Change tool to Cylindrical cutter)

G00 Z5.000000
G00 X-6.548844 Y-21.935275

G01 Z-8.000000 F100.0(Penetrate)
G03 X-3.395853 Y-22.636197 Z-8.000000 I6.462067 J21.626523 F100.000000
G03 X-0.009162 Y-22.885799 Z-8.000000 I3.386691 J22.851133
G03 X3.382239 Y-22.632126 Z-8.000000 I-0.000000 J22.796967
G03 X6.540024 Y-21.925792 Z-8.000000 I-3.405374 J22.636173
G00 Z5.000000

(End cutting path id: path22469)


(Footer)
M5
G00 X0.0000 Y0.0000
M2
(Using default footer. To add your own footer create file "footer" in the output dir.)
(end)
%