%
(Header)
(Generated by gcodetools from Inkscape.)
(Using default header. To add your own header create file "header" in the output dir.)
M3
(Header end.)
G21 (All units in mm)

(Start cutting path id: path22477)
(Change tool to Cylindrical cutter)

G00 Z5.000000
G00 X6.540024 Y21.855889

G01 Z-4.000000 F100.0(Penetrate)
G03 X3.382249 Y22.557235 Z-4.000000 I-6.450239 J-21.582319 F100.000000
G03 X-0.009162 Y22.806427 Z-4.000000 I-3.391411 J-22.953353
G03 X-3.395979 Y22.556693 Z-4.000000 I0.000000 J-23.090306
G03 X-6.548844 Y21.855889 Z-4.000000 I3.315155 J-22.357288
G00 Z5.000000

(End cutting path id: path22477)


(Start cutting path id: path22477)
(Change tool to Cylindrical cutter)

G00 Z5.000000
G00 X6.540024 Y21.855889

G01 Z-8.000000 F100.0(Penetrate)
G03 X3.382249 Y22.557235 Z-8.000000 I-6.450239 J-21.582319 F100.000000
G03 X-0.009162 Y22.806427 Z-8.000000 I-3.391411 J-22.953353
G03 X-3.395979 Y22.556693 Z-8.000000 I0.000000 J-23.090306
G03 X-6.548844 Y21.855889 Z-8.000000 I3.315155 J-22.357288
G00 Z5.000000

(End cutting path id: path22477)


(Footer)
M5
G00 X0.0000 Y0.0000
M2
(Using default footer. To add your own footer create file "footer" in the output dir.)
(end)
%