%
(Header)
(Generated by gcodetools from Inkscape.)
(Using default header. To add your own header create file "header" in the output dir.)
M3
(Header end.)
G21 (All units in mm)

(Start cutting path id: path2985)
(Change tool to Cylindrical cutter)

G00 Z5.000000
G00 X-3.240982 Y22.568790

G01 Z-4.000000 F100.0(Penetrate)
G03 X-17.125078 Y15.089907 Z-4.000000 I3.209249 J-22.584713 F100.000000
G03 X-22.850520 Y-0.034943 Z-4.000000 I17.114869 J-15.124850
G03 X-17.126123 Y-15.165509 Z-4.000000 I22.858541 J-0.000000
G03 X-3.240982 Y-22.648168 Z-4.000000 I17.092994 J15.094227
G00 Z5.000000

(End cutting path id: path2985)


(Start cutting path id: path2985)
(Change tool to Cylindrical cutter)

G00 Z5.000000
G00 X-3.240982 Y22.568790

G01 Z-8.000000 F100.0(Penetrate)
G03 X-17.125078 Y15.089907 Z-8.000000 I3.209249 J-22.584713 F100.000000
G03 X-22.850520 Y-0.034943 Z-8.000000 I17.114869 J-15.124850
G03 X-17.126123 Y-15.165509 Z-8.000000 I22.858541 J-0.000000
G03 X-3.240982 Y-22.648168 Z-8.000000 I17.092994 J15.094227
G00 Z5.000000

(End cutting path id: path2985)


(Start cutting path id: path2985)
(Change tool to Cylindrical cutter)

G00 Z5.000000
G00 X3.232162 Y-22.648168

G01 Z-4.000000 F100.0(Penetrate)
G03 X17.118025 Y-15.166781 Z-4.000000 I-3.198522 J22.563785 F100.000000
G03 X22.841701 Y-0.034943 Z-4.000000 I-17.140388 J15.131837
G03 X17.116977 Y15.091179 Z-4.000000 I-22.845822 J-0.000000
G03 X3.232162 Y22.568790 Z-4.000000 I-17.084739 J-15.093999
G00 Z5.000000

(End cutting path id: path2985)


(Start cutting path id: path2985)
(Change tool to Cylindrical cutter)

G00 Z5.000000
G00 X3.232162 Y-22.648168

G01 Z-8.000000 F100.0(Penetrate)
G03 X17.118025 Y-15.166781 Z-8.000000 I-3.198522 J22.563785 F100.000000
G03 X22.841701 Y-0.034943 Z-8.000000 I-17.140388 J15.131837
G03 X17.116977 Y15.091179 Z-8.000000 I-22.845822 J-0.000000
G03 X3.232162 Y22.568790 Z-8.000000 I-17.084739 J-15.093999
G00 Z5.000000

(End cutting path id: path2985)


(Footer)
M5
G00 X0.0000 Y0.0000
M2
(Using default footer. To add your own footer create file "footer" in the output dir.)
(end)
%