%
(Header)
(Generated by gcodetools from Inkscape.)
(Using default header. To add your own header create file "header" in the output dir.)
M3
(Header end.)
G21 (All units in mm)

(Start cutting path id: path22855)
(Change tool to Cylindrical cutter)

G00 Z5.000000
G00 X8.303615 Y-0.039685

G01 Z-4.000000 F100.0(Penetrate)
G02 X5.870251 Y-5.914349 Z-4.000000 I-8.308033 J-0.000000 F100.000000
G02 X-0.004410 Y-8.347714 Z-4.000000 I-5.874660 J5.874656
G02 X-5.879070 Y-5.914349 Z-4.000000 I-0.000000 J8.308021
G02 X-8.312434 Y-0.039685 Z-4.000000 I5.874669 J5.874664
G02 X-5.879070 Y5.834980 Z-4.000000 I8.308033 J-0.000000
G02 X-0.004410 Y8.268345 Z-4.000000 I5.874660 J-5.874656
G02 X5.870251 Y5.834980 Z-4.000000 I-0.000000 J-8.308021
G02 X8.303615 Y-0.039685 Z-4.000000 I-5.874669 J-5.874664
G01 X8.303615 Y-0.039685 Z-4.000000
G00 Z5.000000

(End cutting path id: path22855)


(Start cutting path id: path22855)
(Change tool to Cylindrical cutter)

G00 Z5.000000
G00 X8.303615 Y-0.039685

G01 Z-8.000000 F100.0(Penetrate)
G02 X5.870251 Y-5.914349 Z-8.000000 I-8.308033 J-0.000000 F100.000000
G02 X-0.004410 Y-8.347714 Z-8.000000 I-5.874660 J5.874656
G02 X-5.879070 Y-5.914349 Z-8.000000 I-0.000000 J8.308021
G02 X-8.312434 Y-0.039685 Z-8.000000 I5.874669 J5.874664
G02 X-5.879070 Y5.834980 Z-8.000000 I8.308033 J-0.000000
G02 X-0.004410 Y8.268345 Z-8.000000 I5.874660 J-5.874656
G02 X5.870251 Y5.834980 Z-8.000000 I-0.000000 J-8.308021
G02 X8.303615 Y-0.039685 Z-8.000000 I-5.874669 J-5.874664
G01 X8.303615 Y-0.039685 Z-8.000000
G00 Z5.000000

(End cutting path id: path22855)


(Footer)
M5
G00 X0.0000 Y0.0000
M2
(Using default footer. To add your own footer create file "footer" in the output dir.)
(end)
%